assets/img/hand.svg

<svg width="290" height="298" viewBox="0 0 290 298" fill="none" xmlns="http://www.w3.org/2000/svg">
<path d="M173.349 243.041C168.671 238.08 163.396 233.719 157.644 230.058C154.735 228.211 151.692 226.583 148.54 225.189C145.387 223.8 142.14 222.636 138.822 221.706C132.166 219.817 125.638 218.625 119.477 217.204C116.453 216.529 113.471 215.678 110.547 214.656C107.54 213.565 104.514 212.372 101.461 211.153C95.3642 208.705 89.1572 206.119 82.6294 203.946C76.1016 201.774 69.7939 199.931 63.3761 198.106C50.4213 194.439 37.4207 191.249 24.521 187.958L19.7076 186.71C18.1673 186.298 16.7279 185.866 15.4077 185.39C13.2331 184.737 11.2672 183.527 9.70503 181.879C9.06951 181.05 8.6127 180.098 8.36338 179.083C8.11406 178.068 8.07765 177.013 8.25644 175.983C8.29903 175.692 8.36029 175.405 8.43982 175.122L8.56818 174.69L8.78821 174.15L9.20995 173.04C9.36581 172.674 9.58585 172.353 9.75088 171.995C10.1128 171.318 10.5202 170.665 10.9703 170.043C11.1995 169.731 11.4745 169.465 11.7129 169.172C11.9408 168.863 12.2022 168.58 12.4922 168.328C15.7378 165.119 20.5603 163.093 25.7403 162.02C31.0659 160.964 36.497 160.536 41.9223 160.745C47.5747 160.929 53.205 161.542 58.7644 162.579C61.6066 163.111 64.4671 163.744 67.3276 164.505C68.7579 164.881 70.1881 165.303 71.5817 165.761C72.2968 165.981 72.9844 166.228 73.672 166.476C74.3597 166.723 74.5889 166.861 76.5417 167.558C79.371 168.538 82.4211 168.69 85.3341 167.998C86.0492 167.814 86.7093 167.493 87.4061 167.246C87.7453 167.117 88.0937 166.999 88.4238 166.843L89.3406 166.302C89.6523 166.109 89.9732 165.935 90.2574 165.715L91.1101 165.018C91.6724 164.549 92.1854 164.024 92.6412 163.45C94.5207 161.116 95.6633 158.276 95.9234 155.291C95.9876 154.53 95.9876 153.759 96.0243 152.989C96.0465 152.592 96.0465 152.194 96.0243 151.797L95.9143 150.697C95.7822 149.591 95.5801 148.495 95.3091 147.415C94.7849 145.329 94.0283 143.309 93.0538 141.392L92.6687 140.658L92.3753 140.127L91.7977 139.09L90.6425 137.027L88.3138 132.911L83.583 124.733C77.2202 113.869 70.6465 103.169 64.0362 92.5341C58.5902 83.7692 53.0343 75.1137 47.5975 66.3947C42.1607 57.6757 36.7514 48.9757 31.3146 40.3117C28.9309 36.4335 26.8955 32.8947 25.8137 29.4566C25.2747 27.7832 24.9452 26.0486 24.8327 24.2941C24.7183 22.751 24.8734 21.1998 25.2911 19.71C25.6137 18.4033 26.232 17.1882 27.0983 16.1581C27.9646 15.1281 29.0558 14.3112 30.2878 13.7694L31.278 13.4121L32.3415 13.1462C32.7266 13.1004 33.1025 13.045 33.4875 12.9716C33.8326 12.9534 34.1784 12.9534 34.5235 12.9716C35.9984 12.9812 37.4557 13.2932 38.8051 13.8885C40.3268 14.5739 41.7266 15.5029 42.9492 16.6389C44.3986 17.9869 45.727 19.4593 46.919 21.0395C49.4495 24.3584 51.7507 28.2371 54.3087 32.2895L69.4271 55.8154L84.0964 79.3404C89.524 88.0319 94.8324 96.9801 100.819 105.241C102.497 107.551 104.487 110.476 106.751 111.576C108.151 112.317 109.615 112.93 111.124 113.41C112.243 113.712 113.536 113.887 114.187 113.025C115.021 111.906 114.379 109.624 113.774 107.9C112.198 103.817 110.259 99.8827 107.98 96.1459C102.011 85.7858 96.1068 75.3712 89.909 65.1394C86.8377 60.051 83.6471 55.0543 80.4841 50.0118L65.9432 27.4761C63.6145 23.9463 61.3591 19.9948 58.5261 16.0158C57.0883 13.9471 55.5204 11.9718 53.8319 10.1021C52.9296 9.11919 51.978 8.18231 50.9806 7.29608C49.9092 6.3389 48.7659 5.46571 47.5608 4.68349C45.1166 3.08454 42.4152 1.91862 39.5753 1.23643C38.1011 0.889872 36.5963 0.689892 35.0828 0.640137C34.3218 0.640137 33.5609 0.640638 32.7907 0.695648C32.0206 0.750657 31.3513 0.878619 30.627 0.97947C27.6456 1.46107 24.7958 2.55354 22.2564 4.18836C19.6898 5.8598 17.526 8.07978 15.9211 10.6885C14.179 13.5758 13.0725 16.8017 12.6756 20.1505C12.4837 21.7534 12.4285 23.3694 12.5105 24.9817C12.6025 26.5212 12.7986 28.0528 13.0973 29.5658C13.6908 32.4816 14.6136 35.321 15.8478 38.0286C17.0067 40.5436 18.3044 42.9922 19.7351 45.3632L27.7849 58.5748C30.4559 62.9878 33.1605 67.3635 35.8988 71.7032C50.0087 94.1746 64.3846 116.362 77.7519 139.081L80.0257 142.969L82.2352 146.801C82.8135 147.854 83.2776 148.967 83.6196 150.12C83.7818 150.686 83.9104 151.262 84.0047 151.843C84.0528 152.073 84.0865 152.306 84.1055 152.541C84.2231 153.515 84.0642 154.503 83.6471 155.391C83.1969 156.097 82.4956 156.604 81.6851 156.812C80.9792 157 80.2365 157 79.5306 156.812L78.9988 156.656L78.0086 156.317L75.8724 155.657C68.9378 153.675 61.851 152.271 54.6846 151.458C47.5612 150.543 40.3618 150.374 33.2033 150.954C29.5016 151.309 25.8384 151.99 22.2564 152.989C18.616 153.987 15.1344 155.493 11.9146 157.463C8.62533 159.456 5.82953 162.168 3.7365 165.394C2.70455 166.999 1.87029 168.723 1.25189 170.528C0.936774 171.431 0.667504 172.349 0.445091 173.278C0.255813 174.233 0.148454 175.203 0.124196 176.176C0.00797343 180.073 1.34073 183.876 3.86485 186.848C6.4503 189.791 9.96175 191.432 13.3907 192.642C16.8196 193.852 20.3036 194.567 23.7233 195.475L34.0009 198.097C47.6892 201.572 61.5057 204.442 75.0289 208.403C78.467 209.411 81.8593 210.429 85.2149 211.62C88.5705 212.812 91.9077 214.086 95.2358 215.379C98.5639 216.672 101.91 217.992 105.321 219.221C106.999 219.844 108.695 220.44 110.428 220.99C112.16 221.54 113.902 221.999 115.663 222.402C122.649 224.071 129.727 224.923 136.621 226.528C143.55 228.037 150.172 230.713 156.205 234.44C162.251 238.216 167.754 242.8 172.561 248.064C177.379 253.347 181.818 258.962 185.846 264.87C187.799 267.675 189.678 270.536 191.503 273.424L193.006 275.844C193.386 276.608 193.831 277.338 194.336 278.026C194.508 278.155 194.706 278.247 194.916 278.293C195.127 278.339 195.345 278.338 195.555 278.292C196.518 278.173 196.747 276.788 196.041 275.541C189.687 264.264 182.71 252.832 173.349 243.041Z" fill="#F5B400"/>
<path d="M288.824 238.053C288.726 237.736 288.6 237.43 288.448 237.136L287.898 236.219L286.798 234.321C286.44 233.697 285.982 233.074 285.578 232.487L284.735 231.241L283.268 229.049C281.38 226.241 279.665 223.32 278.134 220.303C276.688 217.486 275.657 214.475 275.071 211.363C274.989 210.999 274.937 210.628 274.916 210.254L274.815 209.145C274.76 208.411 274.815 207.687 274.815 206.954C274.815 206.22 274.961 205.515 275.062 204.8L275.31 203.736L275.42 203.204C275.466 203.03 275.493 202.864 275.566 202.617C277.759 195.414 279.42 188.059 280.536 180.613C281.026 177.132 281.28 173.622 281.297 170.106C281.262 166.426 280.77 162.764 279.83 159.206C278.821 155.245 277.446 151.386 275.722 147.681C274.058 144.078 272.162 140.588 270.047 137.229C267.929 133.828 265.665 130.573 263.446 127.318C261.227 124.063 259.027 120.791 256.891 117.472C252.664 110.908 249.015 104.031 245.174 97.2373C241.332 90.4436 236.922 84.0535 232.769 77.4432C228.616 70.8329 224.518 63.9933 220.392 57.273C218.373 53.8493 215.984 50.6581 213.268 47.7564C211.871 46.3331 210.293 45.1001 208.574 44.0891C206.843 43.0835 204.941 42.408 202.963 42.0988C199.055 41.5785 195.086 42.3996 191.704 44.4276C188.433 46.4464 185.666 49.1877 183.618 52.4408C182.591 53.972 181.647 55.5495 180.712 57.1539L180.418 57.658L175.046 49.5435L173.12 46.6829C172.403 45.7257 171.635 44.8076 170.819 43.9324C169.078 41.6705 167.163 39.5492 165.089 37.5881C163.949 36.6153 162.721 35.7504 161.422 35.0032L160.422 34.4714C160.065 34.2972 159.716 34.1138 159.35 33.9763C158.653 33.6756 157.936 33.424 157.204 33.2242C154.458 32.3601 151.616 31.8401 148.742 31.6753C147.266 31.701 145.809 32.0123 144.451 32.5921C143.131 33.0872 141.875 33.6733 140.6 34.2601C139.934 34.5568 139.286 34.8903 138.657 35.2593C138.052 35.6352 137.474 36.0116 136.896 36.4241C135.723 37.2335 134.646 38.1744 133.688 39.2292C131.802 41.3407 130.603 43.9756 130.249 46.7841C129.985 48.6051 129.908 50.4484 130.02 52.2851C128.361 50.3964 127.004 48.2969 125.134 46.3257C123.158 44.2671 120.856 42.5482 118.322 41.2375C115.95 39.8574 113.419 38.7703 110.785 38.0008C109.44 37.6851 108.049 37.6104 106.678 37.7806C105.323 37.9278 103.983 38.1891 102.671 38.5604C100.062 39.1957 97.6036 40.3403 95.4384 41.9296C93.2733 43.5188 91.444 45.5208 90.0557 47.82C88.6493 49.9966 87.6981 52.4358 87.2594 54.9899C87.1769 55.6042 87.1036 56.2184 87.021 56.8235L86.9569 57.3276C86.9569 57.456 86.7643 57.612 86.8927 57.7771C87.1395 57.9756 87.4145 58.1359 87.7087 58.2534C88.5155 58.6385 89.3956 58.7857 89.4781 58.5748C90.1434 56.6232 90.9714 54.731 91.9536 52.9181C92.9003 51.1776 94.2449 49.6855 95.8776 48.5631C96.7027 48.0222 97.5921 47.6458 98.3622 47.1324C99.1479 46.6518 99.9658 46.2263 100.81 45.8583C104.043 44.5415 107.662 44.5415 110.895 45.8583C111.653 46.1806 112.368 46.596 113.022 47.0957C113.712 47.702 114.328 48.3887 114.856 49.1406C115.867 50.4274 116.813 51.7647 117.689 53.1473C118.688 54.7059 119.853 56.6676 120.962 58.7763C123.19 63.0303 125.729 67.0917 128.297 71.1624C130.277 74.3071 132.441 77.3418 134.669 80.3307C136.686 83.0445 138.718 85.7374 140.765 88.4084C142.813 91.0794 144.903 93.7469 147.037 96.4118L150.209 100.354C151.382 101.812 152.363 103.417 154.124 104.49C154.457 104.752 154.855 104.92 155.275 104.978C155.696 105.036 156.124 104.981 156.517 104.819C157.433 104.553 158.304 104.287 159.267 103.902C160.158 103.575 161.005 103.138 161.788 102.6C162.497 102.167 163.028 101.494 163.283 100.703C163.406 100.278 163.438 99.8314 163.375 99.3933C163.311 98.9552 163.155 98.5357 162.916 98.1631C161.982 96.2133 160.932 94.3215 159.771 92.4974C159.166 91.5806 158.46 90.7827 157.763 89.9484L154.692 86.1799L151.621 82.3666L148.641 78.5704C146.331 75.6457 144.378 72.4919 142.287 69.4021L134.146 57.4377L133.843 56.9883C133.898 56.9883 133.935 56.9148 133.926 56.8781C133.674 54.8414 133.674 52.7818 133.926 50.7451C134.055 49.6739 134.276 48.6155 134.586 47.5818C134.858 46.7119 135.291 45.9001 135.86 45.1886C136.437 44.5723 137.049 43.9912 137.694 43.4472C138.343 42.8249 139.052 42.2684 139.812 41.7872C140.215 41.5213 140.646 41.2648 141.095 41.0172L141.765 40.66L142.205 40.4854C143.164 40.1222 144.144 39.8161 145.139 39.5686C146.132 39.3063 147.143 39.1199 148.164 39.0099C148.326 38.9968 148.488 38.9968 148.65 39.0099C148.708 39.017 148.766 39.017 148.824 39.0099H149.2C149.686 39.0099 150.172 39.1011 150.64 39.1836C151.528 39.3128 152.395 39.5632 153.216 39.9267C153.962 40.2732 154.625 40.7761 155.16 41.4022C155.276 41.5306 155.395 41.6503 155.517 41.7604C155.639 41.8704 155.777 42.0072 155.93 42.1722C156.214 42.4473 156.48 42.75 156.764 43.0434C157.314 43.6393 157.864 44.3 158.414 45.006C159.664 46.6269 160.76 48.3606 161.687 50.1855C162.228 51.2398 162.815 52.3493 163.429 53.4678C164.044 54.5863 164.658 55.668 165.263 56.7591C166.537 58.9411 167.839 61.0957 169.15 63.2503C171.186 66.5967 173.404 69.833 175.687 73.0327C177.753 75.9116 179.834 78.7818 181.931 81.6423C184.027 84.5028 186.167 87.3505 188.349 90.1865L191.594 94.3946C192.795 95.9532 193.795 97.6591 195.592 98.8418C195.923 99.1215 196.322 99.3087 196.748 99.3844C197.175 99.46 197.614 99.4212 198.021 99.2724C198.938 99.0341 199.855 98.7866 200.827 98.429C201.728 98.1285 202.585 97.7088 203.376 97.1818C204.089 96.7444 204.619 96.0639 204.87 95.2658C204.988 94.8206 205.014 94.356 204.946 93.9004C204.878 93.4448 204.718 93.008 204.476 92.6165C203.515 90.5551 202.437 88.5503 201.249 86.6115C200.625 85.6946 199.892 84.7778 199.186 83.861L196.041 79.8266L192.896 75.7564L189.843 71.7032C187.478 68.5768 185.47 65.2309 183.325 61.9762L182.068 60.0602C183.793 57.4078 185.699 54.8768 187.771 52.4865C188.777 51.3546 189.881 50.3148 191.072 49.3788C192.18 48.5062 193.397 47.7822 194.693 47.2246C195.95 46.6853 197.278 46.3298 198.636 46.1699C199.924 46.0326 201.227 46.1198 202.486 46.4269C205.108 47.1756 207.428 48.7311 209.115 50.8731C211.137 53.4391 212.944 56.1688 214.515 59.0332L219.97 68.4218L230.926 87.3537C234.593 93.7165 238.218 100.104 241.8 106.516L247.154 116.225C248.878 119.415 251.316 124.174 253.691 128.455C257.248 134.873 260.631 140.438 263.4 145.875C266.169 151.312 268.434 156.876 269.158 162.891C269.882 168.905 269.158 175.451 267.865 182.098C267.205 185.436 266.389 188.8 265.463 192.184C264.999 193.87 264.51 195.564 263.996 197.263C263.739 198.18 263.501 198.83 263.18 200.169L262.749 201.948C262.622 202.554 262.527 203.166 262.465 203.782C261.952 207.473 262.098 211.226 262.896 214.866C263.646 218.199 264.768 221.438 266.242 224.52C267.585 227.37 269.117 230.126 270.826 232.772C271.642 234.055 272.477 235.284 273.302 236.494L274.549 238.327L274.851 238.768C274.925 238.869 274.925 238.859 274.925 238.859L275.007 238.924C275.117 239.025 275.356 239.153 275.356 239.354C275.287 239.592 275.158 239.806 274.98 239.978C273.568 241.179 272.009 242.361 270.396 243.563L260.228 250.897C251.885 256.802 243.484 262.635 235.024 268.399C230.825 271.26 226.608 274.096 222.372 276.908C217.678 280.016 212.755 282.913 208.4 286.534C207.18 287.552 205.649 288.708 205.31 290.486C205.082 291.64 204.957 292.812 204.934 293.988C204.865 294.975 205.158 295.953 205.759 296.738C206.676 297.71 208.07 297.601 209.106 297.417C211.499 296.884 213.785 295.954 215.872 294.667C221.666 291.458 227.479 288.249 233.09 284.728C235.84 282.977 238.591 281.061 241.341 279.227L253.526 270.784L265.674 262.174C269.68 259.313 273.614 256.481 277.593 253.529L280.16 251.594L281.462 250.577L282.8 249.485C285.432 247.248 288.2 244.984 288.97 242.014C289.306 240.707 289.255 239.331 288.824 238.053Z" fill="#F5B400"/>
</svg>

<svg width="290" height="298" fill="none" xmlns="http://www.w3.org/2000/svg"><path d="M173.349 243.041a82.392 82.392 0 0 0-15.705-12.983 69.213 69.213 0 0 0-9.104-4.869 72.922 72.922 0 0 0-9.718-3.483c-6.656-1.889-13.184-3.081-19.345-4.502a79.67 79.67 0 0 1-8.93-2.548c-3.007-1.091-6.033-2.284-9.086-3.503-6.097-2.448-12.304-5.034-18.832-7.207-6.527-2.172-12.835-4.015-19.253-5.84-12.955-3.667-25.955-6.857-38.855-10.148l-4.813-1.248a53.588 53.588 0 0 1-4.3-1.32 13.014 13.014 0 0 1-5.703-3.511 7.56 7.56 0 0 1-1.449-5.896c.043-.291.104-.578.184-.861l.128-.432.22-.54.422-1.11c.156-.366.376-.687.54-1.045.363-.677.77-1.33 1.22-1.952.23-.312.505-.578.743-.871.228-.309.49-.592.78-.844 3.245-3.209 8.067-5.235 13.247-6.308a69.452 69.452 0 0 1 16.182-1.275c5.653.184 11.283.797 16.842 1.834 2.843.532 5.703 1.165 8.564 1.926 1.43.376 2.86.798 4.254 1.256.715.22 1.402.467 2.09.715.688.247.917.385 2.87 1.082 2.829.98 5.88 1.132 8.792.44.715-.184 1.375-.505 2.072-.752.34-.129.688-.247 1.018-.403l.917-.541c.311-.193.632-.367.916-.587l.853-.697a10.733 10.733 0 0 0 1.531-1.568 15.098 15.098 0 0 0 3.282-8.159c.065-.761.065-1.532.101-2.302.022-.397.022-.795 0-1.192l-.11-1.1a26.299 26.299 0 0 0-.605-3.282 28.757 28.757 0 0 0-2.255-6.023l-.385-.734-.294-.531-.577-1.037-1.156-2.063-2.328-4.116-4.731-8.178c-6.363-10.864-12.936-21.564-19.547-32.199-5.446-8.765-11.002-17.42-16.439-26.14-5.436-8.718-10.846-17.418-16.282-26.082-2.384-3.878-4.42-7.417-5.501-10.855a21.283 21.283 0 0 1-.981-5.163 13.33 13.33 0 0 1 .458-4.584 8.793 8.793 0 0 1 4.997-5.94l.99-.358 1.064-.266c.385-.046.76-.101 1.145-.174a9.422 9.422 0 0 1 1.036 0c1.475.01 2.933.321 4.282.917a15.348 15.348 0 0 1 4.144 2.75 33.84 33.84 0 0 1 3.97 4.4c2.53 3.32 4.832 7.198 7.39 11.25l15.118 23.526 14.67 23.525c5.427 8.692 10.735 17.64 16.722 25.901 1.678 2.31 3.668 5.235 5.932 6.335 1.4.741 2.864 1.354 4.373 1.834 1.119.302 2.412.477 3.063-.385.834-1.119.192-3.401-.413-5.125a73.196 73.196 0 0 0-5.794-11.754c-5.969-10.36-11.873-20.775-18.071-31.007-3.071-5.088-6.262-10.085-9.425-15.127l-14.54-22.536c-2.33-3.53-4.585-7.481-7.418-11.46a59.428 59.428 0 0 0-4.694-5.914 39.362 39.362 0 0 0-2.851-2.806 28.078 28.078 0 0 0-3.42-2.613 25.442 25.442 0 0 0-7.986-3.447A22.922 22.922 0 0 0 35.083.64c-.761 0-1.522 0-2.292.056-.77.055-1.44.183-2.164.283a21.922 21.922 0 0 0-8.37 3.21 20.702 20.702 0 0 0-6.336 6.5 23.72 23.72 0 0 0-3.245 9.462 28.473 28.473 0 0 0-.165 4.83c.091 1.54.288 3.072.586 4.585a39.306 39.306 0 0 0 2.75 8.463 74.732 74.732 0 0 0 3.888 7.334l8.05 13.212a828.922 828.922 0 0 0 8.114 13.128c14.11 22.472 28.486 44.659 41.853 67.378l2.274 3.888 2.21 3.832a16.849 16.849 0 0 1 1.384 3.319c.162.566.29 1.142.385 1.723.048.23.082.463.1.698a5.23 5.23 0 0 1-.458 2.85 3.298 3.298 0 0 1-1.962 1.421 4.186 4.186 0 0 1-2.154 0l-.532-.156-.99-.339-2.137-.66a130.718 130.718 0 0 0-21.187-4.199 103.195 103.195 0 0 0-21.482-.504 63.212 63.212 0 0 0-10.947 2.035 40.16 40.16 0 0 0-10.341 4.474 25.504 25.504 0 0 0-8.178 7.931 23.692 23.692 0 0 0-2.485 5.134 28.456 28.456 0 0 0-.807 2.75c-.19.955-.297 1.925-.32 2.898a15.761 15.761 0 0 0 3.74 10.672c2.585 2.943 6.097 4.584 9.526 5.794 3.429 1.21 6.913 1.925 10.332 2.833l10.278 2.622c13.688 3.475 27.505 6.345 41.028 10.306 3.438 1.008 6.83 2.026 10.186 3.217 3.355 1.192 6.693 2.466 10.02 3.759 3.329 1.293 6.675 2.613 10.086 3.842 1.678.623 3.374 1.219 5.107 1.769a65.586 65.586 0 0 0 5.235 1.412c6.986 1.669 14.064 2.521 20.958 4.126a62.615 62.615 0 0 1 19.584 7.912 78.37 78.37 0 0 1 16.356 13.624 152.052 152.052 0 0 1 13.285 16.806 229.84 229.84 0 0 1 5.657 8.554l1.503 2.42c.38.764.825 1.494 1.33 2.182a1.497 1.497 0 0 0 1.219.266c.963-.119 1.192-1.504.486-2.751-6.354-11.277-13.331-22.709-22.692-32.5Z" fill="#F5B400"/><path d="M288.824 238.053a5.59 5.59 0 0 0-.376-.917l-.55-.917-1.1-1.898c-.358-.624-.816-1.247-1.22-1.834l-.843-1.246-1.467-2.192a82.952 82.952 0 0 1-5.134-8.746 32.912 32.912 0 0 1-3.063-8.94 6.775 6.775 0 0 1-.155-1.109l-.101-1.109c-.055-.734 0-1.458 0-2.191 0-.734.146-1.439.247-2.154l.248-1.064.11-.532c.046-.174.073-.34.146-.587a153.843 153.843 0 0 0 4.97-22.004c.49-3.481.744-6.991.761-10.507a44.325 44.325 0 0 0-1.467-10.9 65.849 65.849 0 0 0-4.108-11.525 92.047 92.047 0 0 0-5.675-10.452c-2.118-3.401-4.382-6.656-6.601-9.911-2.219-3.255-4.419-6.527-6.555-9.846-4.227-6.564-7.876-13.441-11.717-20.235-3.842-6.793-8.252-13.183-12.405-19.794-4.153-6.61-8.251-13.45-12.377-20.17a54.258 54.258 0 0 0-7.124-9.517 22.707 22.707 0 0 0-4.694-3.667 16.128 16.128 0 0 0-5.611-1.99c-3.908-.52-7.877.3-11.259 2.329a25.187 25.187 0 0 0-8.086 8.013c-1.027 1.531-1.971 3.108-2.906 4.713l-.294.504-5.372-8.114-1.926-2.861a33.37 33.37 0 0 0-2.301-2.75 54.371 54.371 0 0 0-5.73-6.345 24.362 24.362 0 0 0-3.667-2.585l-1-.532c-.357-.174-.706-.357-1.072-.495a16.16 16.16 0 0 0-2.146-.752 34.832 34.832 0 0 0-8.462-1.549 11.434 11.434 0 0 0-4.291.917c-1.32.495-2.576 1.081-3.851 1.668-.666.297-1.314.63-1.943 1-.605.375-1.183.752-1.761 1.164-1.173.81-2.25 1.75-3.208 2.805a13.962 13.962 0 0 0-3.439 7.555 26.92 26.92 0 0 0-.229 5.501c-1.659-1.889-3.016-3.988-4.886-5.96a26 26 0 0 0-6.812-5.088 33.879 33.879 0 0 0-7.537-3.236 11.68 11.68 0 0 0-4.107-.22 24.386 24.386 0 0 0-4.007.78 20.366 20.366 0 0 0-12.615 9.259 19.201 19.201 0 0 0-2.797 7.17c-.082.614-.155 1.228-.238 1.834l-.064.504c0 .128-.193.284-.064.45.246.198.522.358.816.475.806.386 1.687.533 1.77.322a36.804 36.804 0 0 1 2.475-5.657 12.578 12.578 0 0 1 3.924-4.355c.825-.54 1.714-.917 2.484-1.43a20.017 20.017 0 0 1 2.448-1.275 13.367 13.367 0 0 1 10.085 0 9.854 9.854 0 0 1 2.127 1.238c.69.606 1.306 1.293 1.834 2.045a48.519 48.519 0 0 1 2.833 4.006 77.644 77.644 0 0 1 3.273 5.63c2.228 4.253 4.767 8.315 7.335 12.385 1.98 3.145 4.144 6.18 6.372 9.169a686.476 686.476 0 0 0 6.096 8.077 482.338 482.338 0 0 0 6.272 8.004l3.172 3.942c1.173 1.458 2.154 3.063 3.915 4.136a2.39 2.39 0 0 0 2.393.329c.916-.266 1.787-.532 2.75-.917a11.366 11.366 0 0 0 2.521-1.302 3.472 3.472 0 0 0 1.495-1.897 3.11 3.11 0 0 0-.367-2.54 53.992 53.992 0 0 0-3.145-5.666c-.605-.916-1.311-1.714-2.008-2.549l-3.071-3.768-3.071-3.813-2.98-3.797c-2.31-2.924-4.263-6.078-6.354-9.168l-8.141-11.964-.303-.45c.055 0 .092-.073.083-.11a24.971 24.971 0 0 1 0-6.133c.129-1.071.35-2.13.66-3.163a7.342 7.342 0 0 1 1.274-2.393 21.5 21.5 0 0 1 1.834-1.742 13.48 13.48 0 0 1 2.118-1.66c.403-.266.834-.522 1.283-.77l.67-.357.44-.175a25.95 25.95 0 0 1 2.934-.916 20.398 20.398 0 0 1 3.025-.56 3.01 3.01 0 0 1 .486 0 .713.713 0 0 0 .174 0h.376c.486 0 .972.092 1.44.175a9.89 9.89 0 0 1 2.576.743 5.74 5.74 0 0 1 1.944 1.475c.116.129.235.248.357.358.122.11.26.247.413.412.284.275.55.578.834.871.55.596 1.1 1.257 1.65 1.963a32.826 32.826 0 0 1 3.273 5.18 133.82 133.82 0 0 0 1.742 3.282c.615 1.118 1.229 2.2 1.834 3.291a416.448 416.448 0 0 0 3.887 6.491c2.036 3.347 4.254 6.583 6.537 9.783 2.066 2.879 4.147 5.749 6.244 8.61a456.007 456.007 0 0 0 6.418 8.543l3.245 4.209c1.201 1.558 2.201 3.264 3.998 4.447a2.458 2.458 0 0 0 2.429.43c.917-.238 1.834-.485 2.806-.843.901-.3 1.758-.72 2.549-1.247a3.467 3.467 0 0 0 1.494-1.916 3.381 3.381 0 0 0-.394-2.65 60.094 60.094 0 0 0-3.227-6.004c-.624-.917-1.357-1.834-2.063-2.751l-3.145-4.034-3.145-4.07-3.053-4.054c-2.365-3.126-4.373-6.472-6.518-9.727l-1.257-1.916a68.98 68.98 0 0 1 5.703-7.574 25.478 25.478 0 0 1 3.301-3.107 16.2 16.2 0 0 1 3.621-2.154 14.218 14.218 0 0 1 3.943-1.055 11.227 11.227 0 0 1 3.85.257 12.971 12.971 0 0 1 6.629 4.446 59.12 59.12 0 0 1 5.4 8.16l5.455 9.389 10.956 18.932a1647.66 1647.66 0 0 1 10.874 19.162l5.354 9.709c1.724 3.19 4.162 7.949 6.537 12.23 3.557 6.418 6.94 11.983 9.709 17.42 2.769 5.437 5.034 11.001 5.758 17.016.724 6.014 0 12.56-1.293 19.207-.66 3.338-1.476 6.702-2.402 10.086a209.69 209.69 0 0 1-1.467 5.079c-.257.917-.495 1.567-.816 2.906l-.431 1.779a17.47 17.47 0 0 0-.284 1.834 31.507 31.507 0 0 0 .431 11.084 45.556 45.556 0 0 0 3.346 9.654 70.966 70.966 0 0 0 4.584 8.252 138.987 138.987 0 0 0 2.476 3.722l1.247 1.833.302.441c.074.101.074.091.074.091l.082.065c.11.101.349.229.349.43a1.412 1.412 0 0 1-.376.624c-1.412 1.201-2.971 2.383-4.584 3.585l-10.168 7.334a1719.318 1719.318 0 0 1-25.204 17.502 1263.98 1263.98 0 0 1-12.652 8.509c-4.694 3.108-9.617 6.005-13.972 9.626-1.22 1.018-2.751 2.174-3.09 3.952a20.095 20.095 0 0 0-.376 3.502 4.058 4.058 0 0 0 .825 2.75c.917.972 2.311.863 3.347.679a22.003 22.003 0 0 0 6.766-2.75c5.794-3.209 11.607-6.418 17.218-9.939 2.75-1.751 5.501-3.667 8.251-5.501l12.185-8.443 12.148-8.61a807.312 807.312 0 0 0 11.919-8.645l2.567-1.935 1.302-1.017 1.338-1.092c2.632-2.237 5.4-4.501 6.17-7.471a6.967 6.967 0 0 0-.146-3.961Z" fill="#F5B400"/></svg>
